Papirus/64x64/devices/network-card.svg

<svg xmlns="http://www.w3.org/2000/svg" width="64" height="64" version="1">
 <path style="opacity:0.2" d="m 19.999953,43.000059 0,1.999988 11.999928,0 0,-1.999988 -11.999928,0 z M 12,46.23004 l 0,1.999988 c 0,1.533991 1.190593,2.769984 2.667985,2.769984 l 5.331968,0 0,-1.999989 -5.331968,0 C 13.190593,49.000023 12,47.764031 12,46.23004 Z m 47.999715,0 c 0,1.533991 -1.189993,2.769983 -2.667984,2.769983 l -25.33185,0 0,1.999989 25.33185,0 c 1.477991,0 2.667984,-1.235993 2.667984,-2.769984 l 0,-1.999988 z"/>
 <path style="opacity:0.2;fill-rule:evenodd" d="m 4.2784833,9.9597759 a 2.0001881,2.0001881 0 0 0 1.7499896,3.0117821 l 1.9999881,0 0,-2.027388 -1.9999881,0 A 2.0001881,2.0001881 0 0 1 4.2784833,9.9597759 Z m 3.7499777,40.9837561 0,2.027988 a 2.0001881,2.0001881 0 1 0 3.999976,0 l 0,-2.027988 a 2.0001881,2.0001881 0 1 1 -3.999976,0 z"/>
 <path style="fill:#3da7d6" d="M 14.666585,14.000165 C 13.189393,14.000165 12,15.235157 12,16.769348 l 0,30.459819 c 0,1.533991 1.189393,2.769983 2.666585,2.769983 l 5.333368,0 0,-5.999964 11.999928,0 0,5.999964 25.33385,0 c 1.475991,0 2.665984,-1.235992 2.665984,-2.769983 l 0,-30.459819 c 0,-1.534991 -1.189993,-2.769983 -2.665984,-2.769983 z"/>
 <rect style="fill:#4e4e4e" width="12" height="12" x="30" y="24" rx="2.4" ry="2.4"/>
 <path style="fill:none;stroke:#8e8e8e;stroke-width:3.98987007;stroke-linecap:round;stroke-linejoin:round" d="m 6.0233478,10.023546 3.9815182,0 0,41.981518"/>
 <g transform="matrix(1.9999881,0,0,1.9999881,2.023e-4,1.0003094)">
  <path style="opacity:0.2" d="m 17,25 0,1 2,0 0,-1 -2,0 z m 3,0 0,1 2,0 0,-1 -2,0 z m 3,0 0,1 2,0 0,-1 -2,0 z m 3,0 0,1 2,0 0,-1 -2,0 z"/>
 </g>
 <g style="fill:#f8c44e" transform="matrix(1.9999881,0,0,1.9999881,2.023e-4,2.4791049e-4)">
  <rect width="2" height="4" x="17" y="22"/>
  <rect width="2" height="4" x="20" y="22"/>
  <rect width="2" height="4" x="23" y="22"/>
  <rect width="2" height="4" x="26" y="22"/>
 </g>
 <g style="fill:#b7b7b7" transform="matrix(1.9999881,0,0,1.9999881,1.548e-4,2.4791049e-4)">
  <g transform="translate(0,-1)">
   <rect width="1" height="2" x="16" y="11"/>
   <rect width="1" height="2" x="19" y="11"/>
  </g>
  <g transform="translate(0,7)">
   <rect width="1" height="2" x="16" y="11"/>
   <rect width="1" height="2" x="19" y="11"/>
  </g>
 </g>
 <g style="fill:#b7b7b7" transform="matrix(0,1.9999881,-1.9999881,0,65.999762,-5.9997164)">
  <g transform="translate(0,-1)">
   <rect width="1" height="2" x="16" y="11"/>
   <rect width="1" height="2" x="19" y="11"/>
  </g>
  <g transform="translate(0,7)">
   <rect width="1" height="2" x="16" y="11"/>
   <rect width="1" height="2" x="19" y="11"/>
  </g>
 </g>
 <path style="opacity:0.1;fill:#ffffff" d="M 14.667969 14 C 13.190577 14 12 15.23534 12 16.769531 L 12 17.769531 C 12 16.23534 13.190577 15 14.667969 15 L 57.332031 15 C 58.810022 15 60 16.23534 60 17.769531 L 60 16.769531 C 60 15.23534 58.810022 14 57.332031 14 L 14.667969 14 z"/>
 <path style="opacity:0.1;fill:#ffffff;fill-rule:evenodd" d="M 6.0292969 8 A 2.0001881 2.0001881 0 0 0 4.0683594 10.498047 A 2.0001881 2.0001881 0 0 1 6.0292969 9 L 10.029297 9 A 2.0001881 2.0001881 0 0 1 12.029297 11 L 12.029297 10 A 2.0001881 2.0001881 0 0 0 10.029297 8 L 6.0292969 8 z"/>
</svg>

<svg xmlns="http://www.w3.org/2000/svg" width="64" height="64" version="1">
 <path style="opacity:0.2" d="M 14.667,15.001 C 13.189,15.001 12,16.236 12,17.77 V 48.23 C 12,49.764 13.189,51 14.667,51 H 20 V 45 H 32 V 51 H 57.334 C 58.81,51 60,49.764 60,48.23 V 17.77 C 60,16.235 58.81,15 57.334,15 Z"/>
 <path style="fill:#3da7d6" d="M 14.667,14.001 C 13.189,14.001 12,15.236 12,16.77 V 47.23 C 12,48.764 13.189,50 14.667,50 H 20 V 44 H 32 V 50 H 57.334 C 58.81,50 60,48.764 60,47.23 V 16.77 C 60,15.235 58.81,14 57.334,14 Z"/>
 <rect style="fill:#4e4e4e" width="12" height="12" x="30" y="24" rx="2.4" ry="2.4"/>
 <path style="fill:none;stroke:#000000;stroke-width:4;stroke-linecap:round;stroke-linejoin:round;opacity:0.2" d="M 6.0233,11.024 H 10.005 V 53.005"/>
 <path style="fill:none;stroke:#b7b7b7;stroke-width:4;stroke-linecap:round;stroke-linejoin:round" d="M 6.0233,10.024 H 10.005 V 52.005"/>
 <g style="opacity:0.2" transform="translate(0,1)">
  <rect width="4" height="8" x="34" y="44"/>
  <rect width="4" height="8" x="40" y="44"/>
  <rect width="4" height="8" x="46" y="44"/>
  <rect width="4" height="8" x="52" y="44"/>
 </g>
 <g>
  <rect style="fill:#f8c44e" width="4" height="8" x="34" y="44"/>
  <rect style="fill:#f8c44e" width="4" height="8" x="40" y="44"/>
  <rect style="fill:#f8c44e" width="4" height="8" x="46" y="44"/>
  <rect style="fill:#f8c44e" width="4" height="8" x="52" y="44"/>
 </g>
 <g>
  <rect style="fill:#b7b7b7" width="2" height="4" x="32" y="21"/>
  <rect style="fill:#b7b7b7" width="2" height="4" x="38" y="21"/>
  <rect style="fill:#b7b7b7" width="2" height="4" x="32" y="35"/>
  <rect style="fill:#b7b7b7" width="2" height="4" x="38" y="35"/>
  <rect style="fill:#b7b7b7" width="2" height="4" x="26" y="-45" transform="rotate(90)"/>
  <rect style="fill:#b7b7b7" width="2" height="4" x="32" y="-45" transform="rotate(90)"/>
  <rect style="fill:#b7b7b7" width="2" height="4" x="26" y="-31" transform="rotate(90)"/>
  <rect style="fill:#b7b7b7" width="2" height="4" x="32" y="-31" transform="rotate(90)"/>
 </g>
 <path style="opacity:0.2;fill:#ffffff" d="M 6.0234 8.0234 A 2.0002 2.0002 0 0 0 4.0449 10.51 A 2.0002 2.0002 0 0 1 6.0234 9.0234 L 10.006 9.0234 A 2.0002 2.0002 0 0 1 12.006 11.023 L 12.006 10.023 A 2.0002 2.0002 0 0 0 10.006 8.0234 L 6.0234 8.0234 z"/>
 <path style="fill:#ffffff;opacity:0.2" d="M 57.334 14 L 14.668 14.002 C 13.19 14.002 12 15.236 12 16.77 L 12 17.77 C 12 16.236 13.19 15.002 14.668 15.002 L 57.334 15 C 58.81 15 60 16.235 60 17.77 L 60 16.77 C 60 15.235 58.81 14 57.334 14 z"/>
</svg>
